**harm	**harte	**timestamp	**phrase	**leadinstrument	**kern
*M4/4	*M4/4	*	*	*	*
*B-:	*B-:	*	*	*	*B-:
1r;	N	0	.	r	1r;
=1	=1	=1	=1	=1	=1
*>A2_intro	*>A2_intro	*>A2_intro	*>A2_intro	*>A2_intro	*>A2_intro
1I	B-:maj6	0.325	newline	r	1B- 1dd 1ff
=2	=2	=2	=2	=2	=2
1I	B-:maj6	2.746	.	r	1B- 1dd 1ff
=3	=3	=3	=3	=3	=3
1I	B-:maj6	5.167	.	r	1B- 1dd 1ff
=4	=4	=4	=4	=4	=4
1I	B-:maj6	7.588	.	r	1B- 1dd 1ff
=5	=5	=5	=5	=5	=5
*>A_verse	*>A_verse	*>A_verse	*>A_verse	*>A_verse	*>A_verse
1I	B-:maj6	10.009	newline	voice	1B- 1dd 1ff
=6	=6	=6	=6	=6	=6
1I	B-:maj6	12.397	.	voice	1B- 1dd 1ff
=7	=7	=7	=7	=7	=7
1I	B-:maj6	14.784	.	voice	1B- 1dd 1ff
=8	=8	=8	=8	=8	=8
1I	B-:maj6	17.172	.	voice	1B- 1dd 1ff
=9	=9	=9	=9	=9	=9
1I	B-:maj6	19.559	newline	voice	1B- 1dd 1ff
=10	=10	=10	=10	=10	=10
1I	B-:maj6	21.931	.	voice	1B- 1dd 1ff
=11	=11	=11	=11	=11	=11
1Vc	F:maj/5	24.303	.	voice	1f 1a 1C
=12	=12	=12	=12	=12	=12
1Vc	F:maj/5	26.675	.	voice	1f 1a 1C
=13	=13	=13	=13	=13	=13
1ii	C:min	29.047	newline	voice	1C 1e- 1g
=14	=14	=14	=14	=14	=14
1ii	C:min	31.402	.	voice	1C 1e- 1g
=15	=15	=15	=15	=15	=15
1ii	C:min	33.756	.	voice	1C 1e- 1g
=16	=16	=16	=16	=16	=16
1Vc	F:maj(9)/5	36.111	.	voice	1f 1a 1C
=17	=17	=17	=17	=17	=17
1V	F:maj	38.466	newline	voice	1F 1a 1cc
=18	=18	=18	=18	=18	=18
1V	F:maj	40.832	.	voice	1F 1a 1cc
=19	=19	=19	=19	=19	=19
1I	B-:maj6	43.198	.	voice	1B- 1dd 1ff
=20	=20	=20	=20	=20	=20
2.I	B-:maj6	45.564	.	voice	2B- 2dd 2ff
4VII7	A:7	47.339	.	voice	4A 4cc# 4ee 4gg
=21	=21	=21	=21	=21	=21
*>B_chorus	*>B_chorus	*>B_chorus	*>B_chorus	*>B_chorus	*>B_chorus
1iii	D:min	47.93	newline	voice	1D 1f 1a
=22	=22	=22	=22	=22	=22
1VII7	A:7	50.288	.	voice	1A 1cc# 1ee 1gg
=23	=23	=23	=23	=23	=23
1VII7	A:7	52.647	.	voice	1A 1cc# 1ee 1gg
=24	=24	=24	=24	=24	=24
1iii	D:min	55.005	.	voice	1D 1f 1a
=25	=25	=25	=25	=25	=25
2V	F:maj	57.363	newline	voice	2F 2a 2cc
2#vo	F#:dim	58.534	.	voice	2F# 2a 2cc
=26	=26	=26	=26	=26	=26
2vi7	G:min7	59.704	.	voice	2G 2b- 2dd 2ff
2II7	C:7	60.874	.	voice	2C 2e 2g 2b-
=27	=27	=27	=27	=27	=27
1II7	C:7	62.044	.	voice	1C 1e 1g 1b-
=28	=28	=28	=28	=28	=28
1V7	F:7	64.384	.	voice	1F 1a 1cc 1ee-
=29	=29	=29	=29	=29	=29
*>A_verse	*>A_verse	*>A_verse	*>A_verse	*>A_verse	*>A_verse
1I	B-:maj6	66.724	newline	voice	1B- 1dd 1ff
=30	=30	=30	=30	=30	=30
1I	B-:maj6	69.103	.	voice	1B- 1dd 1ff
=31	=31	=31	=31	=31	=31
1I	B-:maj6	71.482	.	voice	1B- 1dd 1ff
=32	=32	=32	=32	=32	=32
1I	B-:maj6	73.861	.	voice	1B- 1dd 1ff
=33	=33	=33	=33	=33	=33
1I	B-:maj6	76.24	newline	voice	1B- 1dd 1ff
=34	=34	=34	=34	=34	=34
1I	B-:maj6	78.608	.	voice	1B- 1dd 1ff
=35	=35	=35	=35	=35	=35
1Vc	F:maj/5	80.975	.	voice	1f 1a 1C
=36	=36	=36	=36	=36	=36
1Vc	F:maj/5	83.343	.	voice	1f 1a 1C
=37	=37	=37	=37	=37	=37
1ii	C:min	85.711	newline	voice	1C 1e- 1g
=38	=38	=38	=38	=38	=38
1ii	C:min	88.072	.	voice	1C 1e- 1g
=39	=39	=39	=39	=39	=39
1ii	C:min	90.433	.	voice	1C 1e- 1g
=40	=40	=40	=40	=40	=40
1Vc	F:maj(9)/5	92.795	.	voice	1f 1a 1C
=41	=41	=41	=41	=41	=41
1V	F:maj	95.156	newline	voice	1F 1a 1cc
=42	=42	=42	=42	=42	=42
1V	F:maj	97.525	.	voice	1F 1a 1cc
=43	=43	=43	=43	=43	=43
1I	B-:maj6	99.893	.	voice	1B- 1dd 1ff
=44	=44	=44	=44	=44	=44
2.I	B-:maj6	102.262	.	voice	2B- 2dd 2ff
4VII7	A:7	104.038	.	voice	4A 4cc# 4ee 4gg
=45	=45	=45	=45	=45	=45
*>B_instrumental	*>B_instrumental	*>B_instrumental	*>B_instrumental	*>B_instrumental	*>B_instrumental
1iii	D:min	104.631	newline	strings	1D 1f 1a
=46	=46	=46	=46	=46	=46
1VII7	A:7	106.999	.	strings	1A 1cc# 1ee 1gg
=47	=47	=47	=47	=47	=47
1VII7	A:7	109.368	.	strings	1A 1cc# 1ee 1gg
=48	=48	=48	=48	=48	=48
1iii	D:min	111.736	.	strings	1D 1f 1a
=49	=49	=49	=49	=49	=49
2V	F:maj	114.105	newline	strings	2F 2a 2cc
2#vo	F#:dim	115.302	.	strings	2F# 2a 2cc
=50	=50	=50	=50	=50	=50
2vi7	G:min7	116.5	.	strings	2G 2b- 2dd 2ff
2II7	C:7	117.697	.	strings	2C 2e 2g 2b-
=51	=51	=51	=51	=51	=51
1II7	C:7	118.894	.	strings	1C 1e 1g 1b-
=52	=52	=52	=52	=52	=52
1V7	F:7	121.289	.	strings	1F 1a 1cc 1ee-
=53	=53	=53	=53	=53	=53
*>A_verse	*>A_verse	*>A_verse	*>A_verse	*>A_verse	*>A_verse
1I	B-:maj6	123.684	newline	voice	1B- 1dd 1ff
=54	=54	=54	=54	=54	=54
1I	B-:maj6	126.066	.	voice	1B- 1dd 1ff
=55	=55	=55	=55	=55	=55
1I	B-:maj6	128.449	.	voice	1B- 1dd 1ff
=56	=56	=56	=56	=56	=56
1I	B-:maj6	130.832	.	voice	1B- 1dd 1ff
=57	=57	=57	=57	=57	=57
1I	B-:maj6	133.214	newline	voice	1B- 1dd 1ff
=58	=58	=58	=58	=58	=58
1I	B-:maj6	135.589	.	voice	1B- 1dd 1ff
=59	=59	=59	=59	=59	=59
1Vc	F:maj/5	137.963	.	voice	1f 1a 1C
=60	=60	=60	=60	=60	=60
1Vc	F:maj/5	140.337	.	voice	1f 1a 1C
=61	=61	=61	=61	=61	=61
1ii	C:min	142.711	newline	voice	1C 1e- 1g
=62	=62	=62	=62	=62	=62
1ii	C:minmaj7	145.101	.	voice	1C 1e- 1g
=63	=63	=63	=63	=63	=63
1ii7	C:min7	147.491	.	voice	1C 1e- 1g 1b-
=64	=64	=64	=64	=64	=64
1Vc	F:maj(9)/5	149.881	.	voice	1f 1a 1C
=65	=65	=65	=65	=65	=65
1V	F:maj	152.272	newline	voice	1F 1a 1cc
=66	=66	=66	=66	=66	=66
1V	F:maj	154.642	.	voice	1F 1a 1cc
=67	=67	=67	=67	=67	=67
*>C_outro	*>C_outro	*>C_outro	*>C_outro	*>C_outro	*>C_outro
1Im7	B-:7(#11)	157.012	newline	piano	1B- 1dd 1ff 1aa
=68	=68	=68	=68	=68	=68
1Im7	B-:7(#11)	159.414	.	piano	1B- 1dd 1ff 1aa
=69	=69	=69	=69	=69	=69
1Im7	B-:7(#11)	161.815	.	piano	1B- 1dd 1ff 1aa
=70	=70	=70	=70	=70	=70
1Im7	B-:7(#11)	164.217	.	piano	1B- 1dd 1ff 1aa
=71	=71	=71	=71	=71	=71
*>_fadeout	*>_fadeout	*>_fadeout	*>_fadeout	*>_fadeout	*>_fadeout
1Im7	B-:7(#11)	166.618	newline	piano	1B- 1dd 1ff 1aa
=72	=72	=72	=72	=72	=72
1Im7	B-:7(#11)	169.009	.	piano	1B- 1dd 1ff 1aa
=73	=73	=73	=73	=73	=73
1Im7	B-:7(#11)	171.4	.	piano	1B- 1dd 1ff 1aa
=74	=74	=74	=74	=74	=74
1Im7	B-:7(#11)	173.79	.	piano	1B- 1dd 1ff 1aa
=75	=75	=75	=75	=75	=75
1Im7	B-:7(#11)	176.181	newline	piano	1B- 1dd 1ff 1aa
=76	=76	=76	=76	=76	=76
1Im7	B-:7(#11)	178.012	.	piano	1B- 1dd 1ff 1aa
=77	=77	=77	=77	=77	=77
1Im7	B-:7(#11)	179.842	.	piano	1B- 1dd 1ff 1aa
1r;	N	181.673	.	r	1r;
1r;	N	185.365	.	r	1r;
*-	*-	*-	*-	*-	*-
!!!OTL: Amor
!!!COC: Ben E. King
!!!BillboardChartDate: 1961/08/07
!!!BillboardPeak: 18
!!!BillboardWeeksOnChart: 10
!!!SampleTargetRank: 57
!!!SampleActualRank: 58
!!!SampleID#: 0583
!!!RDF**harmony: **recip + pitch class of root + harmonic quality
!!!RDF**harte: Chris Harte's syntax, used by MIREX
!!!RDF**phrase: newline = linebreak in original McGill transcription
!!!RDF**timestamp: McGill audio timestamp in seconds
!!!RDF**leadinstrument: original McGill primary instrumentation annotation
!!!RDT: 2017/01/12/
!!!ENC: Nathaniel Condit-Schultz
!!!EST: Awating manual error checking and editing.
